;FLAVOR:Marlin
;TIME:12370
;Filament used: 11.4817m
;Layer height: 0.12
;MINX:19.892
;MINY:34.967
;MINZ:0.3
;MAXX:96.23
;MAXY:83.676
;MAXZ:29
;Generated with Cura_SteamEngine 4.7.1
M104 S210
M105
M109 S210
M82 ;absolute extrusion mode
;Sliced at: Fri 05-11-2021 14:10:25
G21 ;metric values
G90 ;absolute positioning
M82 ;set extruder to absolute mode
M107 ;start with the fan off
G1 Z5.0 F1800 ;move Z to 5mm
G28 X0 Y0 F1800 ;move X/Y to min endstops
G28 Z0 ;move Z to min endstop
G92 E0 ;zero the extruded length
G1 F200 E6.0 ;extrude 6.0mm of feed stock to build pressure
G1 Z5.0 F300 ;move the platform down 5mm
G92 E0 ;zero the extruded length again
G1 F1800
;Put printing message on LCD screen
M117 Printing...
G92 E0
G92 E0
G1 F1500 E-5
;LAYER_COUNT:319
;LAYER:0
M107
G0 F1350 X27.395 Y35.946 Z0.3
;TYPE:SKIRT
G1 F1500 E0.72757
G1 F900 X27.634 Y35.795 E0.74308
G1 X27.833 Y35.729 E0.75459
G1 X31.235 Y34.99 E0.94564
G1 X31.447 Y34.967 E0.95734
G1 X34.221 Y34.967 E1.10958
G1 X34.5 Y35.007 E1.12504
G1 X34.807 Y35.156 E1.14377
G1 X37.146 Y36.846 E1.30213
G1 X37.349 Y37.042 E1.31762
G1 X37.511 Y37.347 E1.33657
G1 X38.371 Y39.989 E1.48905
G1 X38.42 Y40.267 E1.50454
G1 X38.371 Y40.609 E1.5235
G1 X37.511 Y43.251 E1.67598
G1 X37.387 Y43.504 E1.69145
G1 X37.116 Y43.772 E1.71236
G1 X34.609 Y45.447 E1.87783
G1 X34.354 Y45.57 E1.89336
G1 X34.053 Y45.616 E1.91007
G1 X33.338 Y45.616 E1.94931
G1 X32.281 Y48.589 E2.12247
G1 X32.216 Y51.913 E2.30493
G1 X32.196 Y52.092 E2.31481
G1 X31.418 Y55.92 E2.52918
G1 X31.344 Y56.635 E2.56863
G1 X31.943 Y56.146 E2.61107
G1 X32.185 Y56.001 E2.62655
G1 X32.58 Y55.921 E2.64867
G1 X35.228 Y55.931 E2.79399
G1 X35.507 Y55.972 E2.80947
G1 X35.812 Y56.122 E2.82812
G1 X37.81 Y57.574 E2.96366
G1 X38.012 Y57.77 E2.97911
G1 X38.173 Y58.074 E2.99799
G1 X38.936 Y60.42 E3.13337
G1 X38.985 Y60.698 E3.14886
G1 X38.911 Y61.106 E3.17162
G1 X37.598 Y64.329 E3.36261
G1 X37.457 Y64.572 E3.37803
G1 X35.686 Y66.812 E3.53474
G1 X34.352 Y69.114 E3.68075
G1 X34.141 Y69.368 E3.69887
G1 X33.656 Y69.788 E3.73408
G1 X33.78 Y70.342 E3.76524
G1 X36.342 Y72.331 E3.94323
G1 X36.45 Y72.428 E3.9512
G1 X38.259 Y74.31 E4.09446
G1 X38.489 Y74.694 E4.11902
G1 X39.349 Y77.337 E4.27155
G1 X39.398 Y77.615 E4.28705
G1 X39.349 Y77.956 E4.30595
G1 X38.489 Y80.598 E4.45843
G1 X38.365 Y80.851 E4.47389
G1 X38.126 Y81.097 E4.49272
G1 X35.877 Y82.731 E4.64528
G1 X35.627 Y82.863 E4.66079
G1 X35.209 Y82.919 E4.68394
G1 X32.065 Y82.667 E4.85703
G1 X31.79 Y82.605 E4.8725
G1 X31.54 Y82.467 E4.88817
G1 X28.731 Y80.335 E5.0817
G1 X28.683 Y80.295 E5.08513
G1 X25.574 Y77.615 E5.31039
G1 X25.442 Y77.477 E5.32087
G1 X23.868 Y75.48 E5.46041
G1 X23.683 Y75.103 E5.48346
G1 X22.786 Y71.505 E5.68696
G1 X22.769 Y71.426 E5.69139
G1 X22.301 Y68.586 E5.84935
G1 X21.091 Y66.461 E5.98355
G1 X21.006 Y66.267 E5.99517
G1 X19.935 Y62.869 E6.1907
G1 X19.892 Y62.497 E6.21125
G1 X20.154 Y58.808 E6.41421
G1 X20.504 Y55.273 E6.60915
G1 X20.52 Y55.169 E6.61493
G1 X21.226 Y51.772 E6.80534
G1 X21.348 Y48.271 E6.99759
G1 X21.386 Y48.028 E7.01108
G1 X22.844 Y42.985 E7.29917
G1 X22.861 Y42.933 E7.30218
G1 X24.325 Y38.748 E7.54549
G1 X24.455 Y38.497 E7.56101
G1 X24.619 Y38.318 E7.57433
G1 X26.991 Y36.291 E7.74556
G0 F810 X27.395 Y35.946
G0 F1350 X27.655 Y36.25
G1 F900 X27.918 Y36.12 E7.76166
G1 X31.32 Y35.381 E7.95271
G1 X31.447 Y35.367 E7.95972
G1 X34.221 Y35.367 E8.11196
G1 X34.436 Y35.407 E8.12396
G1 X34.572 Y35.481 E8.13246
G1 X36.911 Y37.171 E8.29082
G1 X37.062 Y37.328 E8.30277
G1 X37.131 Y37.471 E8.31149
G1 X37.991 Y40.113 E8.46397
G1 X38.019 Y40.33 E8.47597
G1 X37.991 Y40.485 E8.48462
G1 X37.131 Y43.127 E8.6371
G1 X37.026 Y43.318 E8.64906
G1 X36.893 Y43.44 E8.65896
G1 X34.386 Y45.115 E8.82443
G1 X34.053 Y45.216 E8.84352
G1 X33.056 Y45.216 E8.89824
G1 X31.882 Y48.516 E9.09046
G1 X31.816 Y51.905 E9.27648
G1 X31.804 Y52.012 E9.28239
G1 X31.022 Y55.86 E9.49788
G1 X30.846 Y57.558 E9.59157
G1 X32.196 Y56.456 E9.6872
G1 X32.388 Y56.351 E9.69921
G1 X32.578 Y56.321 E9.70977
G1 X35.226 Y56.331 E9.85509
G1 X35.441 Y56.371 E9.86709
G1 X35.577 Y56.446 E9.87561
G1 X37.575 Y57.898 E10.01116
G1 X37.725 Y58.056 E10.02312
G1 X37.793 Y58.197 E10.03171
G1 X38.556 Y60.543 E10.16709
G1 X38.584 Y60.76 E10.1791
G1 X38.541 Y60.955 E10.19006
G1 X37.228 Y64.178 E10.38105
G1 X37.143 Y64.324 E10.39032
G1 X35.355 Y66.587 E10.5486
G1 X34.006 Y68.913 E10.69616
G1 X33.88 Y69.066 E10.70704
G1 X33.214 Y69.642 E10.75536
G1 X33.421 Y70.57 E10.80754
G1 X36.097 Y72.647 E10.99344
G1 X36.162 Y72.705 E10.99822
G1 X37.971 Y74.587 E11.14148
G1 X38.109 Y74.817 E11.1562
G1 X38.969 Y77.46 E11.30873
G1 X38.997 Y77.677 E11.32074
G1 X38.969 Y77.832 E11.32938
G1 X38.109 Y80.474 E11.48186
G1 X38.004 Y80.665 E11.49382
G1 X37.891 Y80.773 E11.5024
G1 X35.642 Y82.407 E11.65496
G1 X35.445 Y82.501 E11.66694
G1 X35.241 Y82.52 E11.67818
G1 X32.097 Y82.268 E11.85128
G1 X31.782 Y82.148 E11.86978
G1 X28.973 Y80.016 E12.06331
G1 X25.835 Y77.312 E12.29063
G1 X25.756 Y77.229 E12.29692
G1 X24.182 Y75.232 E12.43646
G1 X24.071 Y75.006 E12.45028
G1 X23.174 Y71.408 E12.65378
G1 X23.164 Y71.361 E12.65642
G1 X22.684 Y68.45 E12.81833
G1 X21.439 Y66.263 E12.95643
G1 X21.388 Y66.146 E12.96344
G1 X20.317 Y62.748 E13.15896
G1 X20.291 Y62.525 E13.17128
G1 X20.552 Y58.848 E13.37358
G1 X20.902 Y55.313 E13.56853
G1 X20.912 Y55.25 E13.57203
G1 X21.624 Y51.826 E13.76395
G1 X21.747 Y48.285 E13.9584
G1 X21.771 Y48.139 E13.96652
G1 X23.239 Y43.065 E14.2564
G1 X24.703 Y38.88 E14.49971
G1 X24.879 Y38.622 E14.51685
G1 X27.251 Y36.595 E14.68808
G0 F810 X27.655 Y36.25
G0 F1350 X27.915 Y36.554
G1 F900 X28.003 Y36.511 E14.69346
G1 X31.405 Y35.772 E14.88451
G1 X31.447 Y35.767 E14.88683
G1 X34.221 Y35.767 E15.03907
G1 X34.338 Y35.805 E15.04582
G1 X36.677 Y37.495 E15.20418
G1 X36.75 Y37.595 E15.21098
G1 X37.61 Y40.237 E15.36345
G1 X37.61 Y40.361 E15.37026
G1 X36.75 Y43.003 E15.52274
G1 X36.671 Y43.107 E15.52991
G1 X34.164 Y44.782 E15.69537
G1 X34.053 Y44.816 E15.70174
G1 X32.774 Y44.816 E15.77193
G1 X31.483 Y48.443 E15.98321
G1 X31.416 Y51.897 E16.1728
G1 X31.412 Y51.933 E16.17479
G1 X30.626 Y55.802 E16.39145
G1 X30.348 Y58.482 E16.53932
G1 X32.449 Y56.766 E16.68819
G1 X32.577 Y56.721 E16.69564
G1 X35.225 Y56.731 E16.84096
G1 X35.342 Y56.769 E16.84771
G1 X37.34 Y58.221 E16.98325
G1 X37.412 Y58.321 E16.99002
G1 X38.175 Y60.667 E17.1254
G1 X38.17 Y60.804 E17.13292
G1 X36.857 Y64.027 E17.32391
G1 X36.829 Y64.076 E17.32701
G1 X35.023 Y66.361 E17.48685
G1 X33.66 Y68.712 E17.63599
G1 X33.618 Y68.763 E17.63961
G1 X32.771 Y69.496 E17.70108
G1 X33.061 Y70.797 E17.77423
G1 X35.852 Y72.963 E17.96811
G1 X35.873 Y72.982 E17.96967
G1 X37.682 Y74.864 E18.11293
G1 X37.728 Y74.941 E18.11785
G1 X38.588 Y77.584 E18.27038
G1 X38.588 Y77.708 E18.27719
G1 X37.728 Y80.35 E18.42967
G1 X37.656 Y80.45 E18.43643
G1 X35.407 Y82.084 E18.58899
G1 X35.273 Y82.121 E18.59662
G1 X32.129 Y81.869 E18.76971
G1 X32.024 Y81.829 E18.77588
G1 X29.205 Y79.689 E18.97011
G1 X26.096 Y77.009 E19.19537
G1 X26.07 Y76.982 E19.19743
G1 X24.496 Y74.985 E19.33697
G1 X24.459 Y74.909 E19.34161
G1 X23.559 Y71.296 E19.54595
G1 X23.068 Y68.316 E19.71169
G1 X21.786 Y66.065 E19.85385
G1 X21.769 Y66.026 E19.85619
G1 X20.698 Y62.628 E20.05171
G1 X20.69 Y62.554 E20.0558
G1 X20.95 Y58.887 E20.25754
G1 X21.303 Y55.331 E20.45365
G1 X22.023 Y51.868 E20.64776
G1 X22.147 Y48.299 E20.84375
G1 X22.155 Y48.25 E20.84647
G1 X23.616 Y43.197 E21.13513
G1 X25.08 Y39.012 E21.37845
G1 X25.139 Y38.926 E21.38418
G1 X27.511 Y36.899 E21.5554
G0 F810 X27.915 Y36.554
G0 F1350 X28.139 Y36.889
G1 F900 X31.464 Y36.167 E21.74213
G1 X34.157 Y36.167 E21.88992
G1 X36.39 Y37.781 E22.04112
G1 X37.21 Y40.299 E22.18645
G1 X36.391 Y42.814 E22.33161
G1 X33.994 Y44.416 E22.48983
G1 X32.633 Y44.416 E22.56452
G1 X32.514 Y44.455 E22.57139
G1 X32.445 Y44.549 E22.57779
G1 X31.096 Y48.341 E22.79867
G1 X31.084 Y48.404 E22.80219
G1 X31.016 Y51.873 E22.9926
G1 X30.229 Y55.75 E23.20971
G1 X29.9 Y58.923 E23.38477
G1 X29.927 Y59.045 E23.39163
G1 X30.02 Y59.128 E23.39847
G1 X30.145 Y59.139 E23.40536
G1 X30.226 Y59.099 E23.41031
G1 X32.648 Y57.121 E23.58193
G1 X35.158 Y57.131 E23.71967
G1 X37.052 Y58.507 E23.84815
G1 X37.773 Y60.723 E23.97604
G1 X36.5 Y63.847 E24.16117
G1 X34.702 Y66.122 E24.3203
G1 X34.686 Y66.146 E24.32189
G1 X33.33 Y68.483 E24.47016
G1 X32.419 Y69.272 E24.5363
G1 X32.355 Y69.379 E24.54315
G1 X32.355 Y69.467 E24.54797
G1 X32.687 Y70.955 E24.63164
G1 X32.759 Y71.069 E24.63904
G1 X35.594 Y73.27 E24.83601
G1 X37.362 Y75.11 E24.97605
G1 X38.188 Y77.646 E25.12242
G1 X37.368 Y80.164 E25.26775
G1 X35.23 Y81.717 E25.41276
G1 X32.219 Y81.477 E25.57853
G1 X29.464 Y79.384 E25.76841
G1 X26.373 Y76.719 E25.99238
G1 X24.836 Y74.771 E26.12855
G1 X23.95 Y71.214 E26.32972
G1 X23.457 Y68.217 E26.49641
G1 X23.434 Y68.15 E26.5003
G1 X22.144 Y65.885 E26.64334
G1 X21.091 Y62.542 E26.83569
G1 X21.348 Y58.927 E27.03458
G1 X21.697 Y55.404 E27.22887
G1 X22.418 Y51.936 E27.42326
G1 X22.422 Y51.902 E27.42513
G1 X22.546 Y48.339 E27.62079
G1 X23.994 Y43.328 E27.90704
G1 X25.439 Y39.196 E28.14727
G1 X27.735 Y37.234 E28.31301
G0 F810 X28.139 Y36.889
G0 F1350 X28.322 Y37.259
G1 F900 X31.508 Y36.567 E28.49193
G1 X34.028 Y36.567 E28.63022
G1 X36.049 Y38.027 E28.76705
G1 X36.788 Y40.299 E28.89817
G1 X36.053 Y42.558 E29.02853
G1 X33.872 Y44.016 E29.17251
G1 X32.633 Y44.016 E29.2405
G1 X32.418 Y44.056 E29.2525
G1 X32.232 Y44.169 E29.26445
G1 X32.068 Y44.415 E29.28067
G1 X30.719 Y48.207 E29.50155
G1 X30.684 Y48.396 E29.5121
G1 X30.617 Y51.829 E29.70054
G1 X29.84 Y55.651 E29.91458
G1 X29.831 Y55.709 E29.9178
G1 X29.502 Y58.882 E30.09286
G1 X29.52 Y59.1 E30.10487
G1 X29.613 Y59.297 E30.11682
G1 X29.772 Y59.447 E30.12882
G1 X29.973 Y59.531 E30.14077
G1 X30.191 Y59.537 E30.15274
G1 X30.479 Y59.409 E30.17004
G1 X32.79 Y57.522 E30.33377
G1 X35.028 Y57.53 E30.45659
G1 X36.711 Y58.753 E30.57076
G1 X37.347 Y60.707 E30.68354
G1 X36.15 Y63.645 E30.85764
G1 X34.388 Y65.874 E31.01357
G1 X34.34 Y65.945 E31.01827
G1 X33.017 Y68.225 E31.16294
G1 X32.157 Y68.97 E31.22538
G1 X32.021 Y69.14 E31.23733
G1 X31.955 Y69.348 E31.2493
G1 X31.964 Y69.554 E31.26062
G1 X32.296 Y71.042 E31.34429
G1 X32.382 Y71.242 E31.35623
G1 X32.514 Y71.385 E31.36691
G1 X35.324 Y73.566 E31.56212
G1 X37.01 Y75.321 E31.69568
G1 X37.766 Y77.646 E31.82985
G1 X37.027 Y79.918 E31.96097
G1 X35.116 Y81.306 E32.09058
G1 X32.368 Y81.087 E32.24187
G1 X29.71 Y79.067 E32.42508
G1 X26.664 Y76.442 E32.64575
G1 X25.204 Y74.591 E32.77513
G1 X24.344 Y71.142 E32.9702
G1 X23.852 Y68.152 E33.1365
G1 X23.781 Y67.952 E33.14815
G1 X22.512 Y65.724 E33.28886
G1 X21.495 Y62.496 E33.47459
G1 X21.746 Y58.966 E33.66881
G1 X22.093 Y55.458 E33.86226
G1 X22.809 Y52.017 E34.05515
G1 X22.822 Y51.916 E34.06074
G1 X22.945 Y48.401 E34.25375
G1 X24.377 Y43.443 E34.53697
G1 X25.78 Y39.43 E34.77027
G1 X27.918 Y37.604 E34.92457
G0 F810 X28.322 Y37.259
G0 F1350 X28.505 Y37.628
G1 F900 X31.551 Y36.967 E35.09562
G1 X33.897 Y36.967 E35.22437
G1 X35.71 Y38.277 E35.34712
G1 X36.368 Y40.299 E35.46381
G1 X35.716 Y42.303 E35.57947
G1 X33.751 Y43.616 E35.70916
G1 X32.633 Y43.616 E35.77052
G1 X32.354 Y43.656 E35.78599
G1 X32.097 Y43.772 E35.80146
G1 X31.882 Y43.955 E35.81695
G1 X31.691 Y44.281 E35.83769
G1 X30.342 Y48.073 E36.05857
G1 X30.284 Y48.389 E36.0762
G1 X30.218 Y51.786 E36.26266
G1 X29.448 Y55.572 E36.47468
G1 X29.433 Y55.668 E36.48002
G1 X29.104 Y58.841 E36.65508
G1 X29.115 Y59.123 E36.67057
G1 X29.204 Y59.39 E36.68602
G1 X29.365 Y59.623 E36.70156
G1 X29.583 Y59.801 E36.717
G1 X29.843 Y59.911 E36.7325
G1 X30.123 Y59.944 E36.74797
G1 X30.402 Y59.897 E36.7635
G1 X30.732 Y59.719 E36.78407
G1 X32.932 Y57.922 E36.93996
G1 X34.897 Y57.93 E37.0478
G1 X36.371 Y59.001 E37.14779
G1 X36.922 Y60.692 E37.2454
G1 X35.801 Y63.442 E37.40837
G1 X34.075 Y65.626 E37.56114
G1 X33.994 Y65.744 E37.56899
G1 X32.705 Y67.965 E37.70992
G1 X31.895 Y68.667 E37.76874
G1 X31.71 Y68.88 E37.78423
G1 X31.592 Y69.136 E37.7997
G1 X31.55 Y69.415 E37.81518
G1 X31.574 Y69.641 E37.82765
G1 X31.906 Y71.129 E37.91132
G1 X32.006 Y71.393 E37.92681
G1 X32.269 Y71.701 E37.94904
G1 X35.057 Y73.865 E38.14272
G1 X36.658 Y75.531 E38.26953
G1 X37.346 Y77.646 E38.39158
G1 X36.687 Y79.67 E38.5084
G1 X35 Y80.896 E38.62284
G1 X32.516 Y80.697 E38.7596
G1 X29.965 Y78.76 E38.93538
G1 X26.952 Y76.162 E39.15371
G1 X25.571 Y74.412 E39.27606
G1 X24.737 Y71.065 E39.46535
G1 X24.247 Y68.087 E39.63098
G1 X24.129 Y67.754 E39.65037
G1 X22.881 Y65.563 E39.78875
G1 X21.9 Y62.448 E39.96797
G1 X22.144 Y59.006 E40.15734
G1 X22.489 Y55.524 E40.34937
G1 X23.201 Y52.099 E40.54135
G1 X23.221 Y51.93 E40.55069
G1 X23.342 Y48.47 E40.74068
G1 X24.76 Y43.56 E41.02115
G1 X26.123 Y39.664 E41.24767
G1 X28.101 Y37.973 E41.39048
G0 F810 X28.505 Y37.628
G0 F1350 X28.688 Y37.998
G1 F900 X31.595 Y37.367 E41.55373
G1 X33.768 Y37.367 E41.67298
G1 X35.371 Y38.525 E41.78151
G1 X35.948 Y40.299 E41.88388
G1 X35.379 Y42.046 E41.98471
G1 X33.629 Y43.216 E42.10024
G1 X32.633 Y43.216 E42.1549
G1 X32.301 Y43.256 E42.17325
G1 X31.989 Y43.373 E42.19154
G1 X31.712 Y43.561 E42.20991
G1 X31.489 Y43.809 E42.22821
G1 X31.314 Y44.147 E42.2491
G1 X29.965 Y47.939 E42.46998
G1 X29.884 Y48.381 E42.49464
G1 X29.818 Y51.742 E42.67912
G1 X29.056 Y55.492 E42.88913
G1 X29.035 Y55.627 E42.89662
G1 X28.706 Y58.8 E43.07169
G1 X28.712 Y59.134 E43.09002
G1 X28.796 Y59.457 E43.10834
G1 X28.955 Y59.751 E43.12668
G1 X29.179 Y59.999 E43.14502
G1 X29.455 Y60.187 E43.16335
G1 X29.768 Y60.304 E43.18169
G1 X30.099 Y60.344 E43.19998
G1 X30.431 Y60.304 E43.21833
G1 X30.744 Y60.187 E43.23667
G1 X30.985 Y60.028 E43.25252
G1 X33.073 Y58.323 E43.40046
G1 X34.766 Y58.329 E43.49337
G1 X36.032 Y59.249 E43.57925
G1 X36.496 Y60.675 E43.66155
G1 X35.451 Y63.24 E43.81355
G1 X33.761 Y65.378 E43.96311
G1 X33.648 Y65.543 E43.97408
G1 X32.392 Y67.707 E44.1114
G1 X31.633 Y68.365 E44.16652
G1 X31.409 Y68.612 E44.18482
G1 X31.249 Y68.906 E44.20319
G1 X31.164 Y69.229 E44.22152
G1 X31.184 Y69.728 E44.24893
G1 X31.516 Y71.216 E44.33259
G1 X31.627 Y71.531 E44.35092
G1 X31.809 Y71.811 E44.36925
G1 X32.024 Y72.017 E44.38559
G1 X34.786 Y74.161 E44.57748
G1 X36.307 Y75.744 E44.69795
G1 X36.926 Y77.646 E44.80772
G1 X36.348 Y79.422 E44.91022
G1 X34.885 Y80.485 E45.00946
G1 X32.665 Y80.308 E45.13168
G1 X30.211 Y78.443 E45.30083
G1 X27.243 Y75.885 E45.51586
G1 X25.938 Y74.231 E45.63148
G1 X25.128 Y70.98 E45.81535
G1 X24.641 Y68.022 E45.97987
G1 X24.476 Y67.556 E46.007
G1 X23.25 Y65.403 E46.14297
G1 X22.304 Y62.401 E46.3157
G1 X22.542 Y59.045 E46.50034
G1 X22.884 Y55.588 E46.69098
G1 X23.593 Y52.18 E46.88201
G1 X23.621 Y51.944 E46.89506
G1 X23.74 Y48.531 E47.08247
G1 X25.138 Y43.693 E47.35884
G1 X26.465 Y39.897 E47.57952
G1 X28.284 Y38.343 E47.71082
G0 F810 X28.688 Y37.998
G0 F1350 X28.87 Y38.368
G1 F900 X31.638 Y37.767 E47.86626
G1 X33.639 Y37.767 E47.97608
G1 X35.03 Y38.772 E48.07025
G1 X35.527 Y40.299 E48.15838
G1 X35.041 Y41.792 E48.24455
G1 X33.509 Y42.816 E48.34567
G1 X32.633 Y42.816 E48.39375
G1 X32.256 Y42.856 E48.41455
G1 X31.896 Y42.974 E48.43534
G1 X31.569 Y43.164 E48.4561
G1 X31.288 Y43.419 E48.47692
G1 X31.068 Y43.728 E48.49774
G1 X30.937 Y44.013 E48.51495
G1 X29.588 Y47.805 E48.73583
G1 X29.484 Y48.373 E48.76752
G1 X29.419 Y51.697 E48.94997
G1 X28.664 Y55.412 E49.15802
G1 X28.638 Y55.585 E49.16762
G1 X28.309 Y58.758 E49.34269
G1 X28.309 Y59.137 E49.36348
G1 X28.39 Y59.508 E49.38432
G1 X28.545 Y59.853 E49.40508
G1 X28.77 Y60.158 E49.42588
G1 X29.054 Y60.409 E49.44668
G1 X29.384 Y60.596 E49.4675
G1 X29.745 Y60.709 E49.48826
G1 X30.123 Y60.744 E49.50909
G1 X30.499 Y60.699 E49.52987
G1 X30.858 Y60.576 E49.5507
G1 X31.238 Y60.338 E49.5753
G1 X33.215 Y58.723 E49.7154
G1 X34.636 Y58.729 E49.79338
G1 X35.691 Y59.495 E49.86493
G1 X36.07 Y60.661 E49.93222
G1 X35.103 Y63.035 E50.07289
G1 X33.447 Y65.13 E50.21945
G1 X33.302 Y65.343 E50.23359
G1 X32.08 Y67.449 E50.36721
G1 X31.371 Y68.063 E50.41868
G1 X31.113 Y68.34 E50.43946
G1 X30.918 Y68.664 E50.46021
G1 X30.795 Y69.023 E50.48103
G1 X30.75 Y69.399 E50.50182
G1 X30.793 Y69.815 E50.52477
G1 X31.125 Y71.303 E50.60844
G1 X31.246 Y71.662 E50.62923
G1 X31.44 Y71.988 E50.65005
