;FLAVOR:Marlin
;TIME:7728
;Filament used: 2.49254m
;Layer height: 0.12
;MINX:5.923
;MINY:2.5
;MINZ:0.3
;MAXX:116.086
;MAXY:117.499
;MAXZ:0.9
;Generated with Cura_SteamEngine 4.7.1
M104 S210
M105
M109 S210
M82 ;absolute extrusion mode
;Sliced at: Fri 05-11-2021 13:14:59
G21 ;metric values
G90 ;absolute positioning
M82 ;set extruder to absolute mode
M107 ;start with the fan off
G1 Z5.0 F1800 ;move Z to 5mm
G28 X0 Y0 F1800 ;move X/Y to min endstops
G28 Z0 ;move Z to min endstop
G92 E0 ;zero the extruded length
G1 F200 E6.0 ;extrude 6.0mm of feed stock to build pressure
G1 Z5.0 F300 ;move the platform down 5mm
G92 E0 ;zero the extruded length again
G1 F1800
;Put printing message on LCD screen
M117 Printing...
G92 E0
G92 E0
G1 F1500 E-5
;LAYER_COUNT:6
;LAYER:0
M107
G0 F1350 X42.25 Y17.135 Z0.3
;TYPE:SKIRT
G1 F1500 E0.72757
G1 F900 X42.382 Y16.904 E0.74217
G1 X42.705 Y16.48 E0.77142
G1 X42.793 Y16.379 E0.77877
G1 X50.743 Y8.43 E1.39574
G1 X50.946 Y8.165 E1.41406
G1 X51.044 Y7.928 E1.42813
G1 X51.086 Y7.611 E1.44568
G1 X51.086 Y3.617 E1.66487
G1 X51.126 Y3.338 E1.68034
G1 X51.242 Y3.081 E1.69581
G1 X51.496 Y2.793 E1.71688
G1 X51.722 Y2.624 E1.73237
G1 X51.986 Y2.524 E1.74786
G1 X52.203 Y2.5 E1.75984
G1 X76.969 Y2.5 E3.11898
G1 X77.248 Y2.54 E3.13445
G1 X77.505 Y2.656 E3.14993
G1 X77.793 Y2.91 E3.171
G1 X77.962 Y3.136 E3.18649
G1 X78.062 Y3.4 E3.20198
G1 X78.086 Y3.617 E3.21396
G1 X78.084 Y7.706 E3.43836
G1 X78.072 Y7.859 E3.44678
G1 X77.993 Y8.37 E3.47516
G1 X77.927 Y8.603 E3.48845
G1 X77.732 Y9.069 E3.51617
G1 X77.603 Y9.293 E3.53036
G1 X77.293 Y9.696 E3.55826
G1 X77.207 Y9.793 E3.56538
G1 X66.382 Y20.618 E4.40551
G1 X66.283 Y20.705 E4.41275
G1 X65.874 Y21.018 E4.44101
G1 X65.656 Y21.145 E4.45486
G1 X65.177 Y21.348 E4.48341
G1 X64.923 Y21.418 E4.49787
G1 X64.399 Y21.49 E4.52689
G1 X64.263 Y21.499 E4.53437
G1 X44.894 Y21.499 E5.59733
G1 X44.752 Y21.489 E5.60514
G1 X44.242 Y21.416 E5.63341
G1 X43.996 Y21.348 E5.64742
G1 X43.514 Y21.145 E5.67612
G1 X43.286 Y21.011 E5.69064
G1 X42.872 Y20.687 E5.71949
G1 X42.692 Y20.504 E5.73357
G1 X42.382 Y20.096 E5.76169
G1 X42.063 Y19.413 E5.80306
G1 X41.996 Y19.167 E5.81706
G1 X41.924 Y18.648 E5.84581
G1 X41.923 Y18.387 E5.86013
G1 X41.987 Y17.876 E5.8884
G1 X42.051 Y17.628 E5.90245
G0 F810 X42.052 Y17.625
G0 X42.25 Y17.135
G0 F1350 X42.621 Y17.285
G1 F900 X42.7 Y17.146 E5.91123
G1 X43.023 Y16.722 E5.94048
G1 X43.076 Y16.662 E5.94487
G1 X51.043 Y8.696 E6.56316
G1 X51.297 Y8.365 E6.58606
G1 X51.433 Y8.036 E6.60559
G1 X51.486 Y7.632 E6.62795
G1 X51.486 Y3.617 E6.84829
G1 X51.526 Y3.402 E6.8603
G1 X51.779 Y3.076 E6.88294
G1 X51.958 Y2.952 E6.89489
G1 X52.203 Y2.9 E6.90864
G1 X76.969 Y2.9 E8.26778
G1 X77.184 Y2.94 E8.27978
G1 X77.51 Y3.193 E8.30242
G1 X77.634 Y3.372 E8.31437
G1 X77.686 Y3.617 E8.32812
G1 X77.684 Y7.706 E8.55252
G1 X77.677 Y7.798 E8.55758
G1 X77.598 Y8.309 E8.58596
G1 X77.558 Y8.449 E8.59395
G1 X77.363 Y8.915 E8.62167
G1 X77.286 Y9.049 E8.63015
G1 X76.976 Y9.452 E8.65806
G1 X76.924 Y9.51 E8.66233
G1 X66.099 Y20.335 E9.50247
G1 X66.04 Y20.387 E9.50679
G1 X65.631 Y20.7 E9.53505
G1 X65.5 Y20.776 E9.54336
G1 X65.021 Y20.979 E9.57191
G1 X64.869 Y21.021 E9.58057
G1 X64.345 Y21.093 E9.60959
G1 X64.263 Y21.099 E9.61411
G1 X44.894 Y21.099 E10.67706
G1 X44.809 Y21.093 E10.68174
G1 X44.299 Y21.02 E10.71001
G1 X44.151 Y20.979 E10.71844
G1 X43.669 Y20.776 E10.74714
G1 X43.532 Y20.696 E10.75585
G1 X43.118 Y20.372 E10.7847
G1 X43.01 Y20.262 E10.79316
G1 X42.7 Y19.854 E10.82128
G1 X42.433 Y19.26 E10.85702
G1 X42.393 Y19.112 E10.86543
G1 X42.321 Y18.593 E10.89419
G1 X42.32 Y18.436 E10.9028
G1 X42.384 Y17.925 E10.93107
G1 X42.422 Y17.778 E10.9394
G0 F810 X42.423 Y17.775
G0 X42.621 Y17.285
G0 F1350 X42.992 Y17.435
G1 F900 X43.018 Y17.389 E10.9423
G1 X43.341 Y16.965 E10.97155
G1 X43.359 Y16.945 E10.97303
G1 X51.34 Y8.965 E11.5924
G1 X51.646 Y8.567 E11.61995
G1 X51.824 Y8.137 E11.64549
G1 X51.886 Y7.661 E11.67184
G1 X51.886 Y3.617 E11.89377
G1 X51.945 Y3.476 E11.90216
G1 X52.062 Y3.359 E11.91124
G1 X52.203 Y3.3 E11.91962
G1 X76.969 Y3.3 E13.27876
G1 X77.11 Y3.359 E13.28715
G1 X77.227 Y3.476 E13.29623
G1 X77.286 Y3.617 E13.30462
G1 X77.284 Y7.706 E13.52902
G1 X77.282 Y7.737 E13.53073
G1 X77.203 Y8.248 E13.5591
G1 X77.189 Y8.294 E13.56174
G1 X76.994 Y8.76 E13.58946
G1 X76.969 Y8.805 E13.59229
G1 X76.659 Y9.208 E13.62019
G1 X65.797 Y20.07 E14.4632
G1 X65.388 Y20.383 E14.49146
G1 X65.344 Y20.408 E14.49424
G1 X64.865 Y20.611 E14.52279
G1 X64.814 Y20.625 E14.52569
G1 X64.29 Y20.697 E14.55472
G1 X64.263 Y20.699 E14.55621
G1 X44.894 Y20.699 E15.61916
G1 X44.866 Y20.697 E15.6207
G1 X44.356 Y20.624 E15.64898
G1 X44.306 Y20.61 E15.65183
G1 X43.824 Y20.407 E15.68053
G1 X43.779 Y20.381 E15.68338
G1 X43.365 Y20.057 E15.71223
G1 X43.329 Y20.02 E15.71506
G1 X43.019 Y19.612 E15.74319
G1 X42.802 Y19.107 E15.77335
G1 X42.789 Y19.057 E15.77619
G1 X42.717 Y18.538 E15.80494
G1 X42.717 Y18.486 E15.80779
G1 X42.781 Y17.975 E15.83606
G1 X42.793 Y17.928 E15.83872
G0 F810 X42.794 Y17.925
G0 X42.992 Y17.435
G1 F1500 E10.83872
G0 F1350 X40.969 Y26.5
G1 F1500 E16.56628
G1 F900 X41.248 Y26.54 E16.58175
G1 X41.505 Y26.656 E16.59723
G1 X41.793 Y26.91 E16.6183
G1 X41.962 Y27.136 E16.63379
G1 X42.062 Y27.4 E16.64928
G1 X42.086 Y27.617 E16.66126
G1 X42.084 Y31.706 E16.88566
G1 X42.072 Y31.859 E16.89408
G1 X41.993 Y32.37 E16.92246
G1 X41.927 Y32.603 E16.93575
G1 X41.732 Y33.069 E16.96347
G1 X41.603 Y33.293 E16.97766
G1 X41.293 Y33.696 E17.00556
G1 X41.207 Y33.793 E17.01268
G1 X30.382 Y44.618 E17.85281
G1 X30.283 Y44.705 E17.86005
G1 X29.874 Y45.018 E17.88831
G1 X29.656 Y45.145 E17.90216
G1 X29.177 Y45.348 E17.93071
G1 X28.923 Y45.418 E17.94517
G1 X28.399 Y45.49 E17.97419
G1 X28.263 Y45.499 E17.98167
G1 X8.894 Y45.499 E19.04463
G1 X8.752 Y45.489 E19.05244
G1 X8.242 Y45.416 E19.08071
G1 X7.996 Y45.348 E19.09472
G1 X7.514 Y45.145 E19.12342
G1 X7.286 Y45.011 E19.13794
G1 X6.872 Y44.687 E19.16679
G1 X6.692 Y44.504 E19.18087
G1 X6.382 Y44.096 E19.20899
G1 X6.063 Y43.413 E19.25036
G1 X5.996 Y43.167 E19.26436
G1 X5.924 Y42.648 E19.29311
G1 X5.923 Y42.387 E19.30743
G1 X5.987 Y41.876 E19.3357
G1 X6.052 Y41.625 E19.34993
G1 X6.25 Y41.135 E19.37893
G1 X6.382 Y40.904 E19.39353
G1 X6.705 Y40.48 E19.42278
G1 X6.793 Y40.379 E19.43013
G1 X14.743 Y32.43 E20.0471
G1 X14.946 Y32.165 E20.06542
G1 X15.044 Y31.928 E20.0795
G1 X15.086 Y31.611 E20.09704
G1 X15.086 Y27.617 E20.31623
G1 X15.126 Y27.338 E20.3317
G1 X15.242 Y27.081 E20.34717
G1 X15.496 Y26.793 E20.36825
G1 X15.722 Y26.624 E20.38373
G1 X15.986 Y26.524 E20.39923
G1 X16.203 Y26.5 E20.41121
G1 X40.437 Y26.5 E21.74115
G0 F810 X40.969 Y26.5
G0 F1350 X40.969 Y26.9
G1 F900 X41.184 Y26.94 E21.75315
G1 X41.51 Y27.193 E21.7758
G1 X41.634 Y27.372 E21.78775
G1 X41.686 Y27.617 E21.80149
G1 X41.684 Y31.706 E22.0259
G1 X41.677 Y31.798 E22.03096
G1 X41.598 Y32.309 E22.05934
G1 X41.558 Y32.449 E22.06733
G1 X41.363 Y32.915 E22.09505
G1 X41.286 Y33.049 E22.10353
G1 X40.976 Y33.452 E22.13143
G1 X40.924 Y33.51 E22.13571
G1 X30.099 Y44.335 E22.97585
G1 X30.04 Y44.387 E22.98016
G1 X29.631 Y44.7 E23.00843
G1 X29.5 Y44.776 E23.01674
G1 X29.021 Y44.979 E23.04529
G1 X28.869 Y45.021 E23.05394
G1 X28.345 Y45.093 E23.08297
G1 X28.263 Y45.099 E23.08748
G1 X8.894 Y45.099 E24.15044
G1 X8.809 Y45.093 E24.15511
G1 X8.299 Y45.02 E24.18339
G1 X8.151 Y44.979 E24.19182
G1 X7.669 Y44.776 E24.22052
G1 X7.532 Y44.696 E24.22922
G1 X7.118 Y44.372 E24.25807
G1 X7.01 Y44.262 E24.26653
G1 X6.7 Y43.854 E24.29465
G1 X6.433 Y43.26 E24.33039
G1 X6.393 Y43.112 E24.33881
G1 X6.321 Y42.593 E24.36756
G1 X6.32 Y42.436 E24.37618
G1 X6.384 Y41.925 E24.40444
G1 X6.423 Y41.775 E24.41295
G1 X6.621 Y41.285 E24.44195
G1 X6.7 Y41.146 E24.45073
G1 X7.023 Y40.722 E24.47998
G1 X7.076 Y40.662 E24.48437
G1 X15.043 Y32.696 E25.10266
G1 X15.297 Y32.365 E25.12555
G1 X15.433 Y32.036 E25.14509
G1 X15.486 Y31.632 E25.16745
G1 X15.486 Y27.617 E25.38779
G1 X15.526 Y27.402 E25.39979
G1 X15.779 Y27.076 E25.42244
G1 X15.958 Y26.952 E25.43439
G1 X16.203 Y26.9 E25.44814
G1 X40.437 Y26.9 E26.77808
G0 F810 X40.969 Y26.9
G0 F1350 X40.969 Y27.3
G1 F900 X41.11 Y27.359 E26.78647
G1 X41.227 Y27.476 E26.79555
G1 X41.286 Y27.617 E26.80394
G1 X41.284 Y31.706 E27.02834
G1 X41.282 Y31.737 E27.03004
G1 X41.203 Y32.248 E27.05842
G1 X41.189 Y32.294 E27.06106
G1 X40.994 Y32.76 E27.08878
G1 X40.969 Y32.805 E27.0916
G1 X40.659 Y33.208 E27.11951
G1 X29.797 Y44.07 E27.96252
G1 X29.388 Y44.383 E27.99078
G1 X29.344 Y44.408 E27.99356
G1 X28.865 Y44.611 E28.02211
G1 X28.814 Y44.625 E28.02501
G1 X28.29 Y44.697 E28.05404
G1 X28.263 Y44.699 E28.05552
G1 X8.894 Y44.699 E29.11848
G1 X8.866 Y44.697 E29.12002
G1 X8.356 Y44.624 E29.14829
G1 X8.306 Y44.61 E29.15114
G1 X7.824 Y44.407 E29.17985
G1 X7.779 Y44.381 E29.1827
G1 X7.365 Y44.057 E29.21155
G1 X7.329 Y44.02 E29.21438
G1 X7.019 Y43.612 E29.2425
G1 X6.802 Y43.107 E29.27267
G1 X6.789 Y43.057 E29.2755
G1 X6.717 Y42.538 E29.30426
G1 X6.717 Y42.486 E29.30711
G1 X6.781 Y41.975 E29.33537
G1 X6.794 Y41.925 E29.33821
G1 X6.992 Y41.435 E29.36721
G1 X7.018 Y41.389 E29.37011
G1 X7.341 Y40.965 E29.39936
G1 X7.359 Y40.945 E29.40084
G1 X15.34 Y32.965 E30.02021
G1 X15.646 Y32.567 E30.04776
G1 X15.824 Y32.137 E30.0733
G1 X15.886 Y31.661 E30.09965
G1 X15.886 Y27.617 E30.32158
G1 X15.945 Y27.476 E30.32997
G1 X16.062 Y27.359 E30.33905
G1 X16.203 Y27.3 E30.34744
G1 X40.437 Y27.3 E31.67738
G0 F810 X40.969 Y27.3
G1 F1500 E26.67738
G0 F1350 X51.496 Y26.793
G1 F1500 E32.40494
G1 F900 X51.722 Y26.624 E32.42043
G1 X51.986 Y26.524 E32.43592
G1 X52.203 Y26.5 E32.4479
G1 X76.969 Y26.5 E33.80704
G1 X77.248 Y26.54 E33.82251
G1 X77.505 Y26.656 E33.83799
G1 X77.793 Y26.91 E33.85906
G1 X77.962 Y27.136 E33.87455
G1 X78.062 Y27.4 E33.89004
G1 X78.086 Y27.617 E33.90202
G1 X78.084 Y31.706 E34.12642
G1 X78.072 Y31.859 E34.13484
G1 X77.993 Y32.37 E34.16322
G1 X77.927 Y32.603 E34.17651
G1 X77.732 Y33.069 E34.20423
G1 X77.603 Y33.293 E34.21842
G1 X77.293 Y33.696 E34.24632
G1 X77.207 Y33.793 E34.25344
G1 X66.382 Y44.618 E35.09357
G1 X66.283 Y44.705 E35.10081
G1 X65.874 Y45.018 E35.12907
G1 X65.656 Y45.145 E35.14292
G1 X65.177 Y45.348 E35.17147
G1 X64.923 Y45.418 E35.18593
G1 X64.399 Y45.49 E35.21495
G1 X64.263 Y45.499 E35.22243
G1 X44.894 Y45.499 E36.28539
G1 X44.752 Y45.489 E36.2932
G1 X44.242 Y45.416 E36.32147
G1 X43.996 Y45.348 E36.33548
G1 X43.514 Y45.145 E36.36418
G1 X43.286 Y45.011 E36.3787
G1 X42.872 Y44.687 E36.40755
G1 X42.692 Y44.504 E36.42163
G1 X42.382 Y44.096 E36.44975
G1 X42.063 Y43.413 E36.49112
G1 X41.996 Y43.167 E36.50512
G1 X41.924 Y42.648 E36.53387
G1 X41.923 Y42.387 E36.54819
G1 X41.987 Y41.876 E36.57646
G1 X42.052 Y41.625 E36.59069
G1 X42.25 Y41.135 E36.61969
G1 X42.382 Y40.904 E36.63429
G1 X42.705 Y40.48 E36.66354
G1 X42.793 Y40.379 E36.67089
G1 X50.743 Y32.43 E37.28786
G1 X50.946 Y32.165 E37.30618
G1 X51.044 Y31.928 E37.32026
G1 X51.086 Y31.611 E37.3378
G1 X51.086 Y27.617 E37.55699
G1 X51.126 Y27.338 E37.57246
G1 X51.181 Y27.216 E37.5798
G0 F810 X51.242 Y27.081
G0 X51.496 Y26.793
G0 F1350 X51.779 Y27.076
G1 F900 X51.958 Y26.952 E37.59175
G1 X52.203 Y26.9 E37.6055
G1 X76.969 Y26.9 E38.96464
G1 X77.184 Y26.94 E38.97664
G1 X77.51 Y27.193 E38.99929
G1 X77.634 Y27.372 E39.01124
G1 X77.686 Y27.617 E39.02498
G1 X77.684 Y31.706 E39.24938
G1 X77.677 Y31.798 E39.25445
G1 X77.598 Y32.309 E39.28282
G1 X77.558 Y32.449 E39.29081
G1 X77.363 Y32.915 E39.31853
G1 X77.286 Y33.049 E39.32702
G1 X76.976 Y33.452 E39.35492
G1 X76.924 Y33.51 E39.35919
G1 X66.099 Y44.335 E40.19933
G1 X66.04 Y44.387 E40.20365
G1 X65.631 Y44.7 E40.23191
G1 X65.5 Y44.776 E40.24022
G1 X65.021 Y44.979 E40.26877
G1 X64.869 Y45.021 E40.27743
G1 X64.345 Y45.093 E40.30646
G1 X64.263 Y45.099 E40.31097
G1 X44.894 Y45.099 E41.37392
G1 X44.809 Y45.093 E41.3786
G1 X44.299 Y45.02 E41.40687
G1 X44.151 Y44.979 E41.4153
G1 X43.669 Y44.776 E41.444
G1 X43.532 Y44.696 E41.45271
G1 X43.118 Y44.372 E41.48156
G1 X43.01 Y44.262 E41.49002
G1 X42.7 Y43.854 E41.51814
G1 X42.433 Y43.26 E41.55388
G1 X42.393 Y43.112 E41.56229
G1 X42.321 Y42.593 E41.59105
G1 X42.32 Y42.436 E41.59967
G1 X42.384 Y41.925 E41.62793
G1 X42.423 Y41.775 E41.63643
G1 X42.621 Y41.285 E41.66544
G1 X42.7 Y41.146 E41.67421
G1 X43.023 Y40.722 E41.70346
G1 X43.076 Y40.662 E41.70786
G1 X51.043 Y32.696 E42.32614
G1 X51.297 Y32.365 E42.34904
G1 X51.433 Y32.036 E42.36858
G1 X51.486 Y31.632 E42.39094
G1 X51.486 Y27.617 E42.61128
G1 X51.504 Y27.52 E42.61669
G0 F810 X51.526 Y27.402
G0 X51.779 Y27.076
G0 F1350 X52.062 Y27.359
G1 F900 X52.203 Y27.3 E42.62508
G1 X76.969 Y27.3 E43.98422
G1 X77.11 Y27.359 E43.99261
G1 X77.227 Y27.476 E44.00169
G1 X77.286 Y27.617 E44.01008
G1 X77.284 Y31.706 E44.23448
G1 X77.282 Y31.737 E44.23618
G1 X77.203 Y32.248 E44.26456
G1 X77.189 Y32.294 E44.2672
G1 X76.994 Y32.76 E44.29492
G1 X76.969 Y32.805 E44.29775
G1 X76.659 Y33.208 E44.32565
G1 X65.797 Y44.07 E45.16866
G1 X65.388 Y44.383 E45.19692
G1 X65.344 Y44.408 E45.1997
G1 X64.865 Y44.611 E45.22825
G1 X64.814 Y44.625 E45.23115
G1 X64.29 Y44.697 E45.26018
G1 X64.263 Y44.699 E45.26166
G1 X44.894 Y44.699 E46.32462
G1 X44.866 Y44.697 E46.32616
G1 X44.356 Y44.624 E46.35443
G1 X44.306 Y44.61 E46.35728
G1 X43.824 Y44.407 E46.38599
G1 X43.779 Y44.381 E46.38884
G1 X43.365 Y44.057 E46.41769
G1 X43.329 Y44.02 E46.42052
G1 X43.019 Y43.612 E46.44864
G1 X42.802 Y43.107 E46.47881
G1 X42.789 Y43.057 E46.48164
G1 X42.717 Y42.538 E46.5104
G1 X42.717 Y42.486 E46.51325
G1 X42.781 Y41.975 E46.54151
G1 X42.794 Y41.925 E46.54435
G1 X42.992 Y41.435 E46.57335
G1 X43.018 Y41.389 E46.57625
G1 X43.341 Y40.965 E46.6055
G1 X43.359 Y40.945 E46.60698
G1 X51.34 Y32.965 E47.22635
G1 X51.646 Y32.567 E47.25391
G1 X51.824 Y32.137 E47.27945
G1 X51.886 Y31.661 E47.30579
G1 X51.886 Y27.832 E47.51592
G0 F810 X51.886 Y27.617
G0 X51.945 Y27.476
G0 X52.062 Y27.359
G1 F1500 E42.51592
G0 F1350 X51.986 Y50.524
G1 F1500 E48.24349
G1 F900 X52.203 Y50.5 E48.25547
G1 X76.969 Y50.5 E49.61461
G1 X77.248 Y50.54 E49.63007
G1 X77.505 Y50.656 E49.64555
G1 X77.793 Y50.91 E49.66662
G1 X77.962 Y51.136 E49.68211
G1 X78.062 Y51.4 E49.6976
G1 X78.086 Y51.617 E49.70958
G1 X78.084 Y55.706 E49.93398
G1 X78.072 Y55.859 E49.94241
G1 X77.993 Y56.37 E49.97078
G1 X77.927 Y56.603 E49.98407
G1 X77.732 Y57.069 E50.0118
G1 X77.603 Y57.293 E50.02598
G1 X77.293 Y57.696 E50.05388
G1 X77.207 Y57.793 E50.061
G1 X66.382 Y68.618 E50.90114
G1 X66.283 Y68.705 E50.90837
G1 X65.874 Y69.018 E50.93663
G1 X65.656 Y69.145 E50.95048
G1 X65.177 Y69.348 E50.97903
G1 X64.923 Y69.418 E50.99349
G1 X64.399 Y69.49 E51.02252
G1 X64.263 Y69.499 E51.03
G1 X44.894 Y69.499 E52.09295
G1 X44.752 Y69.489 E52.10076
G1 X44.242 Y69.416 E52.12904
G1 X43.996 Y69.348 E52.14304
G1 X43.514 Y69.145 E52.17175
G1 X43.286 Y69.011 E52.18626
G1 X42.872 Y68.687 E52.21511
G1 X42.692 Y68.504 E52.2292
G1 X42.382 Y68.096 E52.25732
G1 X42.063 Y67.413 E52.29869
G1 X41.996 Y67.167 E52.31268
G1 X41.924 Y66.648 E52.34143
G1 X41.923 Y66.387 E52.35576
G1 X41.987 Y65.876 E52.38402
G1 X42.052 Y65.625 E52.39825
G1 X42.25 Y65.135 E52.42725
G1 X42.382 Y64.904 E52.44185
G1 X42.705 Y64.48 E52.4711
G1 X42.793 Y64.379 E52.47846
G1 X50.743 Y56.43 E53.09542
G1 X50.946 Y56.165 E53.11374
G1 X51.044 Y55.928 E53.12782
G1 X51.086 Y55.611 E53.14537
G1 X51.086 Y51.617 E53.36455
G1 X51.126 Y51.338 E53.38002
G1 X51.242 Y51.081 E53.3955
G1 X51.496 Y50.793 E53.41657
G1 X51.522 Y50.773 E53.41837
G0 F810 X51.722 Y50.624
G0 X51.986 Y50.524
G0 F1350 X51.958 Y50.952
G1 F900 X52.203 Y50.9 E53.43212
G1 X76.969 Y50.9 E54.79125
G1 X77.184 Y50.94 E54.80326
G1 X77.51 Y51.193 E54.8259
G1 X77.634 Y51.372 E54.83785
G1 X77.686 Y51.617 E54.8516
G1 X77.684 Y55.706 E55.076
G1 X77.677 Y55.798 E55.08106
G1 X77.598 Y56.309 E55.10944
G1 X77.558 Y56.449 E55.11743
G1 X77.363 Y56.915 E55.14515
G1 X77.286 Y57.049 E55.15363
G1 X76.976 Y57.452 E55.18154
G1 X76.924 Y57.51 E55.18581
G1 X66.099 Y68.335 E56.02595
G1 X66.04 Y68.387 E56.03026
G1 X65.631 Y68.7 E56.05853
G1 X65.5 Y68.776 E56.06684
G1 X65.021 Y68.979 E56.09539
G1 X64.869 Y69.021 E56.10405
G1 X64.345 Y69.093 E56.13307
G1 X64.263 Y69.099 E56.13758
G1 X44.894 Y69.099 E57.20054
G1 X44.809 Y69.093 E57.20522
