;FLAVOR:Marlin
;TIME:1313
;Filament used: 1.83305m
;Layer height: 0.12
;MINX:36.5
;MINY:57.097
;MINZ:0.3
;MAXX:83.5
;MAXY:69.662
;MAXZ:23.92
;Generated with Cura_SteamEngine 4.7.1
M104 S210
M105
M109 S210
M82 ;absolute extrusion mode
;Sliced at: Thu 25-11-2021 09:23:44
G21 ;metric values
G90 ;absolute positioning
M82 ;set extruder to absolute mode
M107 ;start with the fan off
G1 Z5.0 F1800 ;move Z to 5mm
G28 X0 Y0 F1800 ;move X/Y to min endstops
G28 Z0 ;move Z to min endstop
G92 E0 ;zero the extruded length
G1 F200 E6.0 ;extrude 6.0mm of feed stock to build pressure
G1 Z5.0 F300 ;move the platform down 5mm
G92 E0 ;zero the extruded length again
G1 F1800
;Put printing message on LCD screen
M117 Printing...
G92 E0
G92 E0
G1 F1500 E-5
;LAYER_COUNT:106
;LAYER:0
M107
G0 F1350 X37.063 Y58.738 Z0.3
;TYPE:SKIRT
G1 F1500 E0.72757
G1 F900 X37.457 Y58.593 E0.75061
G1 X43.69 Y57.703 E1.09614
G1 X44.751 Y57.562 E1.15488
G1 X45.846 Y57.436 E1.21537
G1 X46.876 Y57.335 E1.27216
G1 X47.961 Y57.249 E1.33189
G1 X49.044 Y57.182 E1.39144
G1 X50.137 Y57.134 E1.45148
G1 X51.206 Y57.106 E1.51017
G1 X52.256 Y57.097 E1.56779
G1 X60.384 Y57.097 E2.01385
G1 X61.427 Y57.106 E2.07109
G1 X62.488 Y57.135 E2.12934
G1 X63.54 Y57.18 E2.18713
G1 X64.584 Y57.244 E2.24453
G1 X65.629 Y57.325 E2.30205
G1 X66.677 Y57.425 E2.35982
G1 X67.735 Y57.545 E2.41826
G1 X68.744 Y57.677 E2.4741
G1 X82.54 Y59.593 E3.23848
G1 X82.811 Y59.67 E3.25394
G1 X83.157 Y59.928 E3.27763
G1 X83.408 Y60.278 E3.30127
G1 X83.5 Y60.696 E3.32476
G1 X83.5 Y61.782 E3.38435
G1 X83.46 Y62.061 E3.39982
G1 X83.344 Y62.318 E3.4153
G1 X83.081 Y62.613 E3.43699
G1 X82.854 Y62.78 E3.45245
G1 X82.589 Y62.878 E3.46796
G1 X82.358 Y62.9 E3.48069
G1 X62.571 Y62.459 E4.56686
G1 X63.088 Y62.834 E4.60191
G1 X63.291 Y63.03 E4.61739
G1 X63.452 Y63.333 E4.63622
G1 X64.076 Y65.25 E4.74686
G1 X64.125 Y65.528 E4.76235
G1 X64.076 Y65.87 E4.78131
G1 X63.452 Y67.787 E4.89195
G1 X63.328 Y68.04 E4.90741
G1 X63.089 Y68.286 E4.92623
G1 X61.457 Y69.471 E5.03691
G1 X61.207 Y69.603 E5.05243
G1 X60.867 Y69.662 E5.07137
G1 X58.675 Y69.657 E5.19166
G1 X56.013 Y69.599 E5.33779
G1 X53.318 Y69.538 E5.48572
G1 X50.294 Y69.464 E5.65173
G1 X47.663 Y69.402 E5.79616
G1 X47.593 Y69.398 E5.8
G1 X46.622 Y69.306 E5.85353
G1 X46.347 Y69.24 E5.86905
G1 X46.129 Y69.119 E5.88273
G1 X44.539 Y67.965 E5.99055
G1 X44.336 Y67.769 E6.00604
G1 X44.175 Y67.466 E6.02487
G1 X43.567 Y65.598 E6.13267
G1 X43.518 Y65.32 E6.14817
G1 X43.567 Y64.978 E6.16713
G1 X44.175 Y63.11 E6.27493
G1 X44.299 Y62.857 E6.2904
G1 X44.583 Y62.58 E6.31217
G1 X45.364 Y62.075 E6.36321
G1 X37.591 Y61.9 E6.78989
G1 X37.312 Y61.854 E6.80541
G1 X37.058 Y61.732 E6.82087
G1 X36.784 Y61.482 E6.84123
G1 X36.617 Y61.254 E6.85674
G1 X36.521 Y60.989 E6.87221
G1 X36.5 Y60.784 E6.88352
G1 X36.5 Y59.694 E6.94334
G1 X36.54 Y59.415 E6.9588
G1 X36.701 Y59.122 E6.97715
G0 F810 X36.75 Y59.032
G0 X37.063 Y58.738
G0 F1350 X37.32 Y59.051
G1 F900 X37.513 Y58.989 E6.98827
G1 X43.743 Y58.099 E7.33364
G1 X44.796 Y57.959 E7.39194
G1 X45.885 Y57.834 E7.4521
G1 X46.907 Y57.734 E7.50845
G1 X47.986 Y57.648 E7.56785
G1 X49.062 Y57.582 E7.62701
G1 X50.148 Y57.534 E7.68667
G1 X51.21 Y57.506 E7.74497
G1 X52.26 Y57.497 E7.8026
G1 X60.38 Y57.497 E8.24822
G1 X61.416 Y57.506 E8.30507
G1 X62.471 Y57.535 E8.36299
G1 X63.516 Y57.579 E8.42039
G1 X64.553 Y57.643 E8.47741
G1 X65.591 Y57.724 E8.53455
G1 X66.632 Y57.823 E8.59194
G1 X67.683 Y57.942 E8.64998
G1 X68.689 Y58.073 E8.70566
G1 X82.485 Y59.989 E9.47004
G1 X82.692 Y60.058 E9.48201
G1 X82.953 Y60.303 E9.50166
G1 X83.064 Y60.491 E9.51364
G1 X83.1 Y60.696 E9.52506
G1 X83.1 Y61.782 E9.58466
G1 X83.06 Y61.997 E9.59666
G1 X82.801 Y62.328 E9.61973
G1 X82.62 Y62.45 E9.63171
G1 X82.367 Y62.5 E9.64586
G1 X44.052 Y61.646 E11.74908
G1 X37.6 Y61.5 E12.10325
G1 X37.386 Y61.455 E12.11525
G1 X37.07 Y61.203 E12.13743
G1 X36.949 Y61.021 E12.14943
G1 X36.9 Y60.784 E12.16271
G1 X36.9 Y59.694 E12.22253
G1 X36.94 Y59.479 E12.23453
G1 X36.967 Y59.442 E12.23704
G0 F810 X37.148 Y59.186
G0 X37.32 Y59.051
G0 F1350 X37.448 Y59.451
G1 F900 X37.57 Y59.385 E12.24465
G1 X43.796 Y58.496 E12.5898
G1 X44.842 Y58.356 E12.64771
G1 X45.924 Y58.232 E12.70748
G1 X46.939 Y58.133 E12.76345
G1 X48.011 Y58.047 E12.82247
G1 X49.079 Y57.981 E12.88119
G1 X50.159 Y57.934 E12.94052
G1 X51.213 Y57.906 E12.99838
G1 X52.263 Y57.897 E13.056
G1 X60.377 Y57.897 E13.50129
G1 X61.405 Y57.906 E13.55771
G1 X62.454 Y57.934 E13.6153
G1 X63.491 Y57.978 E13.67226
G1 X64.522 Y58.042 E13.72895
G1 X65.553 Y58.122 E13.7857
G1 X66.587 Y58.22 E13.8427
G1 X67.632 Y58.339 E13.90042
G1 X68.634 Y58.469 E13.95587
G1 X82.43 Y60.385 E14.72025
G1 X82.553 Y60.452 E14.72794
G1 X82.651 Y60.565 E14.73615
G1 X82.7 Y60.696 E14.74382
G1 X82.7 Y61.782 E14.80342
G1 X82.64 Y61.925 E14.81193
G1 X82.52 Y62.043 E14.82117
G1 X82.376 Y62.1 E14.82967
G1 X44.061 Y61.246 E16.93289
G1 X37.609 Y61.1 E17.28706
G1 X37.47 Y61.04 E17.29537
G1 X37.357 Y60.924 E17.30425
G1 X37.3 Y60.784 E17.31255
G1 X37.3 Y59.937 E17.35903
G0 F810 X37.3 Y59.694
G0 X37.35 Y59.562
G0 X37.448 Y59.451
G1 F1500 E12.35903
G0 F1350 X44.66 Y63.043
G1 F1500 E18.0866
G1 F900 X44.8 Y62.916 E18.09697
G1 X45.922 Y62.191 E18.17028
G1 X46.261 Y62.095 E18.18962
G1 X61.682 Y62.439 E19.03612
G1 X61.896 Y62.484 E19.04812
G1 X62.021 Y62.553 E19.05596
G1 X62.853 Y63.157 E19.11238
G1 X63.004 Y63.316 E19.12441
G1 X63.072 Y63.457 E19.133
G1 X63.696 Y65.374 E19.24364
G1 X63.724 Y65.591 E19.25565
G1 X63.696 Y65.746 E19.26429
G1 X63.072 Y67.663 E19.37493
G1 X62.967 Y67.854 E19.38689
G1 X62.854 Y67.963 E19.39551
G1 X61.222 Y69.148 E19.50619
G1 X61.025 Y69.241 E19.51814
G1 X60.868 Y69.262 E19.52684
G1 X58.684 Y69.257 E19.64669
G1 X56.022 Y69.199 E19.79282
G1 X53.327 Y69.138 E19.94075
G1 X50.303 Y69.064 E20.10676
G1 X47.672 Y69.002 E20.25118
G1 X46.659 Y68.907 E20.30702
G1 X46.364 Y68.796 E20.32432
G1 X44.774 Y67.642 E20.43214
G1 X44.623 Y67.483 E20.44417
G1 X44.555 Y67.342 E20.45276
G1 X43.947 Y65.474 E20.56057
G1 X43.919 Y65.257 E20.57258
G1 X43.947 Y65.102 E20.58122
G1 X44.458 Y63.533 E20.67178
G0 F810 X44.555 Y63.234
G0 X44.66 Y63.043
G0 F1350 X44.936 Y63.358
G1 F900 X45.017 Y63.252 E20.6791
G1 X46.139 Y62.527 E20.75241
G1 X46.252 Y62.495 E20.75885
G1 X61.673 Y62.839 E21.60536
G1 X61.786 Y62.877 E21.6119
G1 X62.618 Y63.481 E21.66832
G1 X62.691 Y63.581 E21.67512
G1 X63.315 Y65.498 E21.78575
G1 X63.315 Y65.622 E21.79256
G1 X62.691 Y67.539 E21.9032
G1 X62.619 Y67.639 E21.90996
G1 X60.987 Y68.824 E22.02064
G1 X60.869 Y68.862 E22.02744
G1 X58.693 Y68.857 E22.14686
G1 X56.031 Y68.799 E22.29299
G1 X53.338 Y68.738 E22.44081
G1 X50.314 Y68.664 E22.60682
G1 X47.668 Y68.601 E22.75207
G1 X46.697 Y68.509 E22.8056
G1 X46.599 Y68.472 E22.81134
G1 X45.009 Y67.318 E22.91916
G1 X44.936 Y67.218 E22.92596
G1 X44.328 Y65.35 E23.03376
G1 X44.328 Y65.226 E23.04057
G1 X44.772 Y63.863 E23.11924
G0 F810 X44.936 Y63.358
G0 F1350 X45.294 Y63.55
G1 F900 X46.305 Y62.896 E23.18532
G1 X61.602 Y63.238 E24.02502
G1 X62.331 Y63.767 E24.07445
G1 X62.915 Y65.56 E24.17793
G1 X62.331 Y67.353 E24.28142
G1 X60.804 Y68.462 E24.38499
G1 X58.701 Y68.457 E24.5004
G1 X56.039 Y68.399 E24.64652
G1 X53.346 Y68.338 E24.79435
G1 X50.322 Y68.264 E24.96035
G1 X47.696 Y68.202 E25.10451
G1 X46.79 Y68.117 E25.15445
G1 X45.296 Y67.032 E25.25578
G1 X44.728 Y65.288 E25.35643
G1 X45.13 Y64.056 E25.42755
G0 F810 X45.294 Y63.55
G0 F1350 X45.631 Y63.808
G1 F900 X46.419 Y63.299 E25.47904
G1 X61.468 Y63.635 E26.30512
G1 X61.99 Y64.014 E26.34052
G1 X62.493 Y65.56 E26.42974
G1 X61.99 Y67.105 E26.51891
G1 X60.674 Y68.062 E26.60821
G1 X58.71 Y68.057 E26.71599
G1 X56.048 Y67.999 E26.86211
G1 X53.357 Y67.938 E27.00983
G1 X50.333 Y67.864 E27.17584
G1 X47.713 Y67.802 E27.31966
G1 X46.936 Y67.729 E27.36249
G1 X45.637 Y66.786 E27.45058
G1 X45.15 Y65.288 E27.53703
G1 X45.467 Y64.314 E27.59324
G0 F810 X45.631 Y63.808
G0 F1350 X45.967 Y64.067
G1 F900 X46.533 Y63.702 E27.6302
G1 X61.336 Y64.032 E28.44278
G1 X61.65 Y64.26 E28.46407
G1 X62.073 Y65.56 E28.5391
G1 X61.65 Y66.859 E28.61407
G1 X60.545 Y67.661 E28.689
G1 X58.719 Y67.657 E28.78921
G1 X56.057 Y67.599 E28.93533
G1 X53.366 Y67.538 E29.08305
G1 X50.342 Y67.464 E29.24906
G1 X47.745 Y67.403 E29.39162
G1 X47.082 Y67.341 E29.42816
G1 X45.977 Y66.538 E29.50312
G1 X45.57 Y65.288 E29.57527
G1 X45.803 Y64.573 E29.61654
G0 F810 X45.967 Y64.067
G0 F1350 X46.303 Y64.327
G1 F900 X46.647 Y64.105 E29.639
G1 X61.201 Y64.429 E30.43791
G1 X61.311 Y64.509 E30.44538
G1 X61.653 Y65.56 E30.50603
G1 X61.311 Y66.61 E30.56664
G1 X60.415 Y67.261 E30.62742
G1 X58.727 Y67.257 E30.72005
G1 X56.067 Y67.199 E30.86607
G1 X53.376 Y67.138 E31.01378
G1 X50.351 Y67.064 E31.17984
G1 X47.764 Y67.003 E31.32186
G1 X47.229 Y66.953 E31.35134
G1 X46.316 Y66.29 E31.41327
G1 X45.99 Y65.288 E31.47109
G1 X46.139 Y64.833 E31.49737
G0 F810 X46.303 Y64.327
G0 F1350 X46.64 Y64.585
G1 F900 X46.76 Y64.507 E31.50522
G1 X60.992 Y64.825 E32.28646
G1 X61.232 Y65.56 E32.32889
G1 X60.97 Y66.363 E32.37524
G1 X60.285 Y66.861 E32.42172
G1 X58.736 Y66.857 E32.50673
G1 X56.076 Y66.799 E32.65274
G1 X53.383 Y66.739 E32.80057
G1 X50.36 Y66.664 E32.96652
G1 X47.782 Y66.603 E33.10804
G1 X47.375 Y66.565 E33.13047
G1 X46.657 Y66.044 E33.17915
G1 X46.411 Y65.288 E33.22278
G1 X46.476 Y65.091 E33.23417
G0 F810 X46.64 Y64.585
G0 F1350 X46.954 Y64.911
G1 F900 X60.7 Y65.217 E33.98873
G1 X60.811 Y65.56 E34.00851
G1 X60.63 Y66.117 E34.04065
G1 X60.157 Y66.46 E34.07272
G1 X58.702 Y66.457 E34.15257
G1 X56.085 Y66.4 E34.29622
G1 X53.396 Y66.339 E34.44383
G1 X50.37 Y66.265 E34.60994
G1 X47.814 Y66.205 E34.75025
G1 X47.522 Y66.177 E34.76635
G1 X46.997 Y65.796 E34.80195
G1 X46.874 Y65.417 E34.82382
G0 F810 X46.832 Y65.288
G0 X46.954 Y64.911
G0 F1350 X47.262 Y65.318
G1 F900 X60.375 Y65.61 E35.54362
G1 X60.291 Y65.869 E35.55857
G1 X60.027 Y66.06 E35.57645
G1 X58.709 Y66.057 E35.64878
G1 X56.094 Y66 E35.79232
G1 X53.406 Y65.939 E35.93988
G1 X50.379 Y65.865 E36.10605
G1 X47.848 Y65.805 E36.24498
G1 X47.668 Y65.789 E36.2549
G1 X47.572 Y65.719 E36.26142
G0 F810 X47.337 Y65.548
G0 X47.262 Y65.318
G1 F1500 E31.26142
;MESH:ESC Deckel.3mf
G0 F1350 X46.981 Y58.532
;TYPE:WALL-OUTER
G1 F1500 E36.98899
G1 F900 X47.001 Y58.529 E36.9901
G1 X48.036 Y58.447 E37.04708
G1 X49.098 Y58.381 E37.10547
G1 X50.169 Y58.334 E37.1643
G1 X51.218 Y58.306 E37.22189
G1 X52.266 Y58.297 E37.27941
G1 X60.374 Y58.297 E37.72437
G1 X61.396 Y58.306 E37.78046
G1 X62.437 Y58.334 E37.83761
G1 X63.468 Y58.378 E37.89424
G1 X64.491 Y58.44 E37.95048
G1 X65.516 Y58.52 E38.0069
G1 X66.542 Y58.618 E38.06347
G1 X67.581 Y58.735 E38.12085
G1 X68.579 Y58.865 E38.17608
G1 X82.3 Y60.771 E38.93631
G1 X82.3 Y61.494 E38.97598
G1 X82.3 Y61.495 E38.97604
G1 X82.3 Y61.698 E38.98718
G1 X82.097 Y61.694 E38.99436
G1 X44.069 Y60.846 E41.08182
G1 X37.7 Y60.702 E41.43144
G1 X37.7 Y59.77 E41.48259
G1 X43.849 Y58.892 E41.82346
G1 X44.889 Y58.754 E41.88103
G1 X45.963 Y58.63 E41.94037
G1 X46.452 Y58.582 E41.96733
G0 F810 X46.969 Y58.532
G0 X46.981 Y58.532
G0 F1350 X47.001 Y58.529
G0 X47.18 Y58.515
G0 X47.213 Y58.953
G0 X46.987 Y58.932
;TYPE:WALL-INNER
G1 F900 X47.011 Y58.932 E41.96865
G1 X47.046 Y58.927 E41.97059
G1 X48.068 Y58.846 E42.02685
G1 X49.116 Y58.781 E42.08448
G1 X50.187 Y58.734 E42.14331
G1 X51.229 Y58.706 E42.20051
G1 X52.269 Y58.697 E42.25759
G1 X60.37 Y58.697 E42.70217
G1 X61.385 Y58.706 E42.75787
G1 X62.42 Y58.734 E42.81469
G1 X63.451 Y58.777 E42.87132
G1 X64.46 Y58.839 E42.9268
G1 X65.485 Y58.919 E42.98322
G1 X66.504 Y59.016 E43.0394
G1 X67.529 Y59.132 E43.09601
G1 X68.527 Y59.261 E43.15123
G1 X79.944 Y60.848 E43.78381
G1 X81.9 Y61.119 E43.89218
G1 X81.9 Y61.289 E43.90151
G1 X79.926 Y61.245 E43.97882
G1 X44.078 Y60.446 E45.94662
G1 X39.343 Y60.339 E46.20654
G1 X38.1 Y60.311 E46.27477
G1 X38.1 Y60.117 E46.28542
G1 X39.331 Y59.942 E46.33618
G1 X43.902 Y59.289 E46.58958
G1 X44.942 Y59.151 E46.64715
G1 X46.002 Y59.028 E46.70572
G1 X46.759 Y58.954 E46.74746
G0 F810 X46.966 Y58.935
G0 X46.987 Y58.932
G0 F1350 X47.086 Y59.325
G1 F900 X48.1 Y59.245 E46.80328
G1 X49.134 Y59.181 E46.86013
G1 X50.205 Y59.134 E46.91896
G1 X51.24 Y59.106 E46.97579
G1 X52.272 Y59.097 E47.03242
G1 X60.366 Y59.097 E47.47662
G1 X61.374 Y59.106 E47.53194
G1 X62.403 Y59.134 E47.58843
G1 X63.434 Y59.176 E47.64505
G1 X64.429 Y59.238 E47.69977
G1 X65.454 Y59.318 E47.75619
G1 X66.466 Y59.414 E47.81197
G1 X67.478 Y59.529 E47.86787
G1 X68.476 Y59.658 E47.9231
G1 X73.056 Y60.295 E48.17686
G1 X76.466 Y60.768 E48.36579
G1 X73.024 Y60.692 E48.46041
G1 X44.218 Y60.049 E50.04166
G1 X43.948 Y60.043 E50.05648
G1 X41.792 Y59.994 E50.17483
G1 X43.955 Y59.686 E50.22911
G1 X44.223 Y59.651 E50.24316
G1 X44.995 Y59.548 E50.2859
G1 X46.041 Y59.426 E50.3437
G1 X46.932 Y59.339 E50.39283
G0 F810 X47.005 Y59.332
G0 X47.039 Y59.332
G0 X47.086 Y59.325
G0 F1350 X47.143 Y59.711
;TYPE:SKIN
G1 F900 X48.048 Y59.639 E50.44265
G1 X49.158 Y59.571 E50.50368
G1 X50.222 Y59.524 E50.56213
G1 X51.25 Y59.496 E50.61856
G1 X52.276 Y59.487 E50.67487
G1 X60.362 Y59.487 E51.11862
G1 X61.364 Y59.496 E51.17362
G1 X62.387 Y59.524 E51.22978
G1 X63.41 Y59.566 E51.28597
G1 X64.481 Y59.632 E51.34485
G1 X65.417 Y59.706 E51.39638
G1 X66.422 Y59.802 E51.45179
G1 X67.534 Y59.928 E51.5132
G1 X68.422 Y60.044 E51.56235
G1 X69.746 Y60.228 E51.63571
G1 X47.526 Y59.732 E52.85543
G0 F810 X47.069 Y59.722
G0 X47.143 Y59.711
G1 F1500 E47.85543
G0 F1350 X54.535 Y59.626
G1 F1500 E53.58299
G1 F900 X54.659 Y59.75 E53.59262
G0 F1350 X55.101 Y59.626
G1 F900 X55.238 Y59.763 E53.60325
G0 F1350 X55.666 Y59.626
G1 F900 X55.816 Y59.776 E53.61489
G0 F1350 X56.232 Y59.626
G1 F900 X56.395 Y59.789 E53.62754
G0 F1350 X56.798 Y59.626
G1 F900 X56.974 Y59.802 E53.6412
G0 F1350 X57.364 Y59.626
G1 F900 X57.552 Y59.815 E53.65583
G0 F1350 X57.929 Y59.626
G1 F900 X58.131 Y59.828 E53.67151
G0 F1350 X58.495 Y59.626
G1 F900 X58.709 Y59.841 E53.68816
G0 F1350 X59.061 Y59.626
G1 F900 X59.288 Y59.854 E53.70581
G0 F1350 X59.626 Y59.626
G1 F900 X59.867 Y59.867 E53.72452
G0 F1350 X60.192 Y59.626
G1 F900 X60.445 Y59.879 E53.74415
G0 F1350 X60.762 Y59.631
G1 F900 X61.024 Y59.892 E53.76445
G0 F1350 X61.333 Y59.635
G1 F900 X61.603 Y59.906 E53.78544
G0 F1350 X61.914 Y59.651
G1 F900 X62.181 Y59.918 E53.80616
G0 F1350 X62.496 Y59.668
G1 F900 X62.759 Y59.931 E53.82658
G0 F1350 X63.087 Y59.693
G1 F900 X63.339 Y59.944 E53.84609
G0 F1350 X63.683 Y59.723
G1 F900 X63.917 Y59.957 E53.86426
G0 F1350 X64.286 Y59.761
G1 F900 X64.495 Y59.97 E53.88048
G0 F1350 X64.895 Y59.804
G1 F900 X65.074 Y59.983 E53.89437
G0 F1350 X65.512 Y59.855
G1 F900 X65.653 Y59.996 E53.90531
G1 F1500 E48.90531
G0 F1350 X69.896 Y60.279
;TYPE:SKIN
G1 F1500 E54.63288
G1 F900 X70.101 Y60.485 E54.64085
G0 F1350 X70.391 Y60.492
G1 F900 X69.917 Y60.017 E54.65926
G0 F1350 X70.224 Y60.042
G1 F900 X70.68 Y60.498 E54.67696
G0 F1350 X70.97 Y60.505
G1 F900 X70.553 Y60.088 E54.69314
G0 F1350 X70.881 Y60.133
G1 F900 X71.259 Y60.511 E54.70781
G0 F1350 X71.548 Y60.517
G1 F900 X71.21 Y60.179 E54.72093
G0 F1350 X71.538 Y60.224
G1 F900 X71.837 Y60.524 E54.73255
G0 F1350 X71.867 Y60.27
G1 F900 X72.127 Y60.53 E54.74264
G0 F1350 X72.195 Y60.316
G1 F900 X72.416 Y60.536 E54.7512
G0 F1350 X72.524 Y60.362
G1 F900 X72.705 Y60.543 E54.75822
G0 F1350 X72.852 Y60.407
G1 F900 X72.994 Y60.549 E54.76373
G1 F1500 E49.76373
G0 F1350 X46.927 Y59.938
G1 F1500 E55.49129
G1 F900 X46.509 Y59.52 E55.50752
G0 F1350 X46.767 Y59.495
G1 F900 X46.908 Y59.636 E55.51299
G0 F1350 X46.666 Y59.96
G1 F900 X46.251 Y59.545 E55.52909
G0 F1350 X45.995 Y59.571
G1 F900 X46.378 Y59.954 E55.54395
G0 F1350 X46.089 Y59.948
G1 F900 X45.742 Y59.601 E55.55742
G0 F1350 X45.488 Y59.631
G1 F900 X45.8 Y59.942 E55.56951
G0 F1350 X45.51 Y59.935
G1 F900 X45.235 Y59.66 E55.58018
G0 F1350 X44.981 Y59.689
G1 F900 X45.221 Y59.929 E55.58949
G0 F1350 X44.932 Y59.923
G1 F900 X44.732 Y59.722 E55.59727
G0 F1350 X44.643 Y59.916
G1 F900 X44.483 Y59.756 E55.60348
G0 F1350 X44.354 Y59.911
G1 F900 X44.233 Y59.79 E55.60818
G1 F1500 E50.60818
G0 F1350 X41.534 Y59.919
G1 F1500 E56.33574
G1 F900 X41.365 Y60.033 E56.34484
G1 X39.646 Y60.148 E56.42171
G0 F810 X39.51 Y60.157
M104 S202
G1 F1500 E51.42171
